modules/stroke-7/icons/safe.svg

<?xml version="1.0" encoding="utf-8"?>
<!-- Generated by IcoMoon.io -->
<!DOCTYPE svg PUBLIC "-//W3C//DTD SVG 1.1//EN" "http://www.w3.org/Graphics/SVG/1.1/DTD/svg11.dtd">
<svg version="1.1" xmlns="http://www.w3.org/2000/svg" xmlns:xlink="http://www.w3.org/1999/xlink" width="26" height="32" viewBox="0 0 26 32">
<g id="icomoon-ignore">
</g>
<path d="M13.113 11.279c-2.429 0-4.429 1.836-4.69 4.196h-1.080v1.049h1.080c0.261 2.36 2.261 4.196 4.69 4.196 2.607 0 4.721-2.113 4.721-4.721s-2.113-4.721-4.721-4.721zM13.113 19.672c-1.846 0-3.373-1.371-3.63-3.147h3.63v-1.049h-3.63c0.256-1.776 1.784-3.147 3.63-3.147 2.024 0 3.672 1.647 3.672 3.672s-1.647 3.672-3.672 3.672z" fill="#000000"></path>
<path d="M3.147 20.786v-3.147h-1.049v4.196h1.049z" fill="#000000"></path>
<path d="M3.147 13.377v-3.147h-1.049v4.196h1.049z" fill="#000000"></path>
<path d="M4.196 7.083v17.834h17.833v-17.834h-17.833zM20.98 23.868h-15.735v-15.735h15.735v15.735h0z" fill="#000000"></path>
<path d="M0 3.936v24.128h26.226v-24.128h-26.226zM25.177 27.015h-24.128v-22.029h24.128v22.029h-0z" fill="#000000"></path>
</svg>

<svg xmlns="http://www.w3.org/2000/svg" width="26" height="32" viewBox="0 0 26 32"><path d="M13.113 11.279a4.72 4.72 0 0 0-4.69 4.196h-1.08v1.049h1.08a4.72 4.72 0 1 0 4.69-5.246zm0 8.393a3.675 3.675 0 0 1-3.63-3.147h3.63v-1.049h-3.63a3.675 3.675 0 0 1 3.63-3.147c2.024 0 3.672 1.647 3.672 3.672s-1.647 3.672-3.672 3.672zM3.147 20.786v-3.147H2.098v4.196h1.049zM3.147 13.377V10.23H2.098v4.196h1.049z"/><path d="M4.196 7.083v17.834h17.833V7.083H4.196zM20.98 23.868H5.245V8.133H20.98v15.735z"/><path d="M0 3.936v24.128h26.226V3.936H0zm25.177 23.079H1.049V4.986h24.128v22.029z"/></svg>
